assets/Police car light/Flat/police_car_light_flat.svg

<svg width="32" height="32" viewBox="0 0 32 32" fill="none" xmlns="http://www.w3.org/2000/svg">
<path d="M9.86385 14.8692L7.5 25H24.5L22.1361 14.8692C21.4707 12.0175 18.9284 10 16 10C13.0716 10 10.5293 12.0175 9.86385 14.8692Z" fill="#F8312F"/>
<path d="M25.8654 30H6.13464C5.51209 30 5 29.517 5 28.9299V26.0701C5 25.483 5.51209 25 6.13464 25H25.8654C26.4879 25 27 25.483 27 26.0701V28.9299C27 29.517 26.498 30 25.8654 30Z" fill="#D3D3D3"/>
<path d="M19.8953 15.8208C20.6935 15.36 20.8705 14.1721 20.2906 13.1677C19.7107 12.1633 18.5935 11.7226 17.7953 12.1835C16.9971 12.6443 16.8201 13.8322 17.4 14.8366C17.9799 15.841 19.0971 16.2817 19.8953 15.8208Z" fill="#F4F4F4"/>
<path d="M15 3C15 2.44772 15.4477 2 16 2C16.5523 2 17 2.44772 17 3V7C17 7.55228 16.5523 8 16 8C15.4477 8 15 7.55228 15 7V3Z" fill="#FCD53F"/>
<path d="M24.2322 5.3033C24.6366 4.8989 25.2923 4.8989 25.6967 5.3033C26.1011 5.7077 26.1011 6.36337 25.6967 6.76777L22.7678 9.6967C22.3634 10.1011 21.7077 10.1011 21.3033 9.6967C20.8989 9.2923 20.8989 8.63663 21.3033 8.23223L24.2322 5.3033Z" fill="#FCD53F"/>
<path d="M6.3033 5.3033C6.7077 4.8989 7.36337 4.8989 7.76777 5.3033L10.6967 8.23223C11.1011 8.63663 11.1011 9.2923 10.6967 9.6967C10.2923 10.1011 9.63663 10.1011 9.23223 9.6967L6.3033 6.76777C5.8989 6.36337 5.8989 5.7077 6.3033 5.3033Z" fill="#FCD53F"/>
</svg>

<svg xmlns="http://www.w3.org/2000/svg" width="32" height="32" fill="none"><path fill="#F8312F" d="M9.864 14.87 7.5 25h17l-2.364-10.13a6.3 6.3 0 0 0-12.272 0Z"/><path fill="#D3D3D3" d="M25.865 30H6.135C5.512 30 5 29.517 5 28.93v-2.86c0-.587.512-1.07 1.135-1.07h19.73c.623 0 1.135.483 1.135 1.07v2.86c0 .587-.502 1.07-1.135 1.07Z"/><path fill="#F4F4F4" d="M19.895 15.82c.799-.46.976-1.648.396-2.652-.58-1.005-1.698-1.445-2.496-.984-.798.46-.975 1.648-.395 2.653.58 1.004 1.697 1.445 2.495.984Z"/><path fill="#FCD53F" d="M15 3a1 1 0 1 1 2 0v4a1 1 0 1 1-2 0V3ZM24.232 5.303a1.036 1.036 0 0 1 1.465 1.465l-2.93 2.929a1.036 1.036 0 0 1-1.464-1.465l2.93-2.929ZM6.303 5.303a1.036 1.036 0 0 1 1.465 0l2.929 2.93a1.036 1.036 0 0 1-1.465 1.464l-2.929-2.93a1.036 1.036 0 0 1 0-1.464Z"/></svg>
